docs/.gitbook/assets/icon-finder-16@dark.svg

<svg width="32" height="32" viewBox="0 0 16 16" fill="none" xmlns="http://www.w3.org/2000/svg">
<rect x="0" y="0" width="16" height="16" fill="#181c1f"/>
<path fill-rule="evenodd" clip-rule="evenodd" d="M1 3.75C1 2.23122 2.23122 1 3.75 1H8.75H12.25C13.7688 1 15 2.23122 15 3.75V12.25C15 13.7688 13.7688 15 12.25 15H8.75H3.75C2.23122 15 1 13.7688 1 12.25V3.75ZM3.75 2.5C3.05964 2.5 2.5 3.05964 2.5 3.75V12.25C2.5 12.9404 3.05964 13.5 3.75 13.5H8V12C7.34671 12 6.76278 11.9319 6.19064 11.7437C5.6182 11.5554 5.09608 11.2596 4.55 10.85C4.21863 10.6015 4.15147 10.1314 4.4 9.8C4.64853 9.46863 5.11863 9.40147 5.45 9.65C5.90392 9.99044 6.2818 10.1946 6.65936 10.3188C7.03722 10.4431 7.45329 10.5 8 10.5V9.09963C8 9.04461 7.95539 9 7.90037 9C6.82413 9 6.05497 7.95859 6.37147 6.92994L7.73453 2.5H3.75ZM9.30393 2.5L7.80514 7.37107C7.78543 7.43514 7.83333 7.5 7.90037 7.5C8.78382 7.5 9.5 8.21618 9.5 9.09963V10.2616C9.82588 10.1346 10.1598 9.94261 10.55 9.65C10.8814 9.40147 11.3515 9.46863 11.6 9.8C11.8485 10.1314 11.7814 10.6015 11.45 10.85C10.9039 11.2596 10.3818 11.5554 9.80936 11.7437C9.70673 11.7775 9.60372 11.8073 9.5 11.8337V13.5H12.25C12.9404 13.5 13.5 12.9404 13.5 12.25V3.75C13.5 3.05964 12.9404 2.5 12.25 2.5H9.30393ZM5 4C5.41421 4 5.75 4.33579 5.75 4.75V6.25C5.75 6.66421 5.41421 7 5 7C4.58579 7 4.25 6.66421 4.25 6.25V4.75C4.25 4.33579 4.58579 4 5 4ZM11 4C11.4142 4 11.75 4.33579 11.75 4.75V6.25C11.75 6.66421 11.4142 7 11 7C10.5858 7 10.25 6.66421 10.25 6.25V4.75C10.25 4.33579 10.5858 4 11 4Z" fill="#fff"/>
</svg>

<svg xmlns="http://www.w3.org/2000/svg" width="32" height="32" fill="none" viewBox="0 0 16 16"><path fill="#181c1f" d="M0 0h16v16H0z"/><path fill="#fff" fill-rule="evenodd" d="M1 3.75A2.75 2.75 0 0 1 3.75 1h8.5A2.75 2.75 0 0 1 15 3.75v8.5A2.75 2.75 0 0 1 12.25 15h-8.5A2.75 2.75 0 0 1 1 12.25zM3.75 2.5c-.69 0-1.25.56-1.25 1.25v8.5c0 .69.56 1.25 1.25 1.25H8V12c-.653 0-1.237-.068-1.81-.256-.572-.189-1.094-.484-1.64-.894a.75.75 0 1 1 .9-1.2c.454.34.832.545 1.21.669.377.124.793.181 1.34.181V9.1a.1.1 0 0 0-.1-.1 1.6 1.6 0 0 1-1.529-2.07L7.735 2.5zm5.554 0L7.805 7.371A.1.1 0 0 0 7.9 7.5a1.6 1.6 0 0 1 1.6 1.6v1.162c.326-.127.66-.32 1.05-.612a.75.75 0 1 1 .9 1.2c-.546.41-1.068.705-1.64.894a5 5 0 0 1-.31.09V13.5h2.75c.69 0 1.25-.56 1.25-1.25v-8.5c0-.69-.56-1.25-1.25-1.25zM5 4a.75.75 0 0 1 .75.75v1.5a.75.75 0 0 1-1.5 0v-1.5A.75.75 0 0 1 5 4m6 0a.75.75 0 0 1 .75.75v1.5a.75.75 0 0 1-1.5 0v-1.5A.75.75 0 0 1 11 4" clip-rule="evenodd"/></svg>
